src/24/panel/copy-update.svg

<svg xmlns="http://www.w3.org/2000/svg" width="24" height="24" x="0" y="0" version="1.1" xml:space="preserve">
 <defs>
  <style id="current-color-scheme" type="text/css">
   .ColorScheme-Text { color:#dfdfdf; } .ColorScheme-Highlight { color:#4285f4; }
  </style>
 </defs>
 <path style="fill:currentColor" class="ColorScheme-Text" d="m20.636 3.0255-0.62102 0.75393a3.0001 3.0001 0 0 1 0.47402 0.55082l0.512-0.9785-0.365-0.3262zm-14.636 4.4748-4.0002 3.4997l4.3752-0.62502 1.6251 9.6253 3.3931-2.3011 9.6073 2.8011-3.0001-7.5003-2.0001-1.4-5.2522 4.4922-3.2488-8.0917-1.5-0.5zm10.207 0.90043-1.189 1.4435 1.9821 1.1562 1.047-2.0021a3.0001 3.0001 0 0 1 -0.047 0.002 3.0001 3.0001 0 0 1 -1.7931 -0.59962zm-3.2071 1.6287-3.0001 0.97103 1 3.0001 4.0001-3.0001-2.0001-0.97103z"/>
 <path style="fill:currentColor" class="ColorScheme-Highlight" d="m20 6a2 2 0 0 1 -4 0 2 2 0 1 1 4 0z"/>
</svg>

<svg xmlns="http://www.w3.org/2000/svg" width="24" height="24"><path d="M20.636 3.026l-.621.753a3 3 0 0 1 .474.551l.512-.978-.365-.326zM6 7.5L2 11l4.375-.625L8 20l3.393-2.3L21 20.5 18 13l-2-1.4-5.252 4.492L7.5 8 6 7.5zm10.207.9l-1.189 1.444L17 11l1.047-2.002A3 3 0 0 1 18 9a3 3 0 0 1-1.793-.6zM13 10.03L10 11l1 3 4-3-2-.97z" fill="currentColor" color="#d3dae3"/><path d="M20 6a2 2 0 0 1-4 0 2 2 0 1 1 4 0z" fill="currentColor" color="#5294e2"/></svg>
